images/icons/dribbble.svg

<svg width="100px" height="100px" viewBox="0 0 100 100" version="1.1" xmlns="http://www.w3.org/2000/svg" xmlns:xlink="http://www.w3.org/1999/xlink">
    <g id="Page-1" stroke="none" stroke-width="1" fill="none" fill-rule="evenodd">
        <g id="dribbble" fill="#000000">
            <path d="M50,0 C22.397,0 0,22.397 0,50 C0,77.603 22.397,100 50,100 C77.5488,100 100,77.603 100,50 C100,22.397 77.5488,0 50,0 Z M83.026,23.0477 C88.9913,30.3145 92.5705,39.5879 92.679,49.6204 C91.269,49.3492 77.1692,46.4751 62.961,48.2646 C62.6356,47.5597 62.3644,46.8004 62.0391,46.0412 C61.1714,43.9805 60.1952,41.8655 59.2191,39.859 C74.9458,33.4599 82.1041,24.2408 83.026,23.0477 Z M50,7.37527 C60.846,7.37527 70.7701,11.4425 78.308,18.1128 C77.5488,19.1974 71.0954,27.82 55.9111,33.5141 C48.9154,20.6616 41.1605,10.141 39.9675,8.5141 C43.167,7.75488 46.5293,7.37527 50,7.37527 Z M31.833,11.3883 C32.9718,12.9067 40.564,23.4816 47.6681,36.0629 C27.7115,41.3774 10.0868,41.269 8.18872,41.2691665 C10.9544,28.0369 19.9024,17.0282 31.833,11.3883 Z M7.26681,50.0542 C7.26681,49.6204 7.26681,49.1866 7.26681,48.7527 C9.11063,48.8069 29.8265,49.0781 51.1388,42.679 C52.3861,45.0651 53.5249,47.5054 54.6095,49.9458 C54.0672,50.1085 53.4707,50.2712 52.9284,50.4338 C30.9111,57.538 19.1974,76.9523 18.2213,78.5792 C11.4425,71.0412 7.26681,61.0087 7.26681,50.0542 Z M50,92.7332 C40.1302,92.7332 31.0195,89.3709 23.8069,83.731 C24.5662,82.1584 33.243,65.4555 57.321,57.0499 C57.4295,56.9957 57.4837,56.9957 57.5922,56.9414 C63.6117,72.5054 66.0521,85.5748 66.7028,89.3167 C61.551,91.5401 55.9111,92.7332 50,92.7332 Z M73.807,85.4122 C73.3731,82.8091 71.0955,70.3362 65.5098,54.9892 C78.9046,52.8742 90.6182,56.3449 92.0824,56.833 C90.2386,68.7093 83.4056,78.9588 73.807,85.4122 Z" id="Shape"></path>
        </g>
    </g>
</svg>

<svg width="100" height="100" fill="none" xmlns="http://www.w3.org/2000/svg">
  <path fill-rule="evenodd" clip-rule="evenodd" d="M50 0C22.397 0 0 22.397 0 50s22.397 50 50 50c27.549 0 50-22.397 50-50S77.549 0 50 0zm33.026 23.048a42.512 42.512 0 0 1 9.653 26.572c-1.41-.27-15.51-3.145-29.718-1.355-.325-.705-.597-1.465-.922-2.224a127.095 127.095 0 0 0-2.82-6.182c15.727-6.4 22.885-15.618 23.807-16.811zM50 7.375c10.846 0 20.77 4.068 28.308 10.738-.76 1.084-7.213 9.707-22.397 15.401-6.996-12.852-14.75-23.373-15.944-25 3.2-.76 6.562-1.139 10.033-1.139zm-18.167 4.013c1.139 1.519 8.731 12.094 15.835 24.675-19.956 5.314-37.581 5.206-39.48 5.206 2.766-13.232 11.714-24.24 23.645-29.88zM7.267 50.054v-1.301c1.844.054 22.56.325 43.872-6.074 1.247 2.386 2.386 4.826 3.47 7.267-.542.163-1.138.325-1.68.488C30.91 57.538 19.196 76.952 18.22 78.579 11.443 71.041 7.267 61.01 7.267 50.054zM50 92.734a42.41 42.41 0 0 1-26.193-9.003c.76-1.573 9.436-18.275 33.514-26.681.108-.054.163-.054.271-.109 6.02 15.564 8.46 28.634 9.11 32.376-5.151 2.223-10.79 3.416-16.702 3.416zm23.807-7.322c-.434-2.603-2.712-15.076-8.297-30.423 13.395-2.115 25.108 1.356 26.572 1.844-1.843 11.876-8.676 22.126-18.275 28.58z" fill="#12100e"/>
</svg>
